X: 2435
Q: "Slowly."
M: 6/8
L: 1/8
K: A
e |\
c>BA a>gf | (fe)c c2e | (fe)c cef | (ec)B B2e |\
c>BA a>gf | (fe)c c2e | (fe)c (B>c)B | A>BA A2 :|
|: c |\


